src/icons/mdx.svg

<svg width="16" height="16" viewBox="0 0 16 16" fill="none" xmlns="http://www.w3.org/2000/svg">
<path fill-rule="evenodd" clip-rule="evenodd" d="M0 11.141H0.821V8.396L2.401 10.116L3.858 8.396V11.106H4.773V6L2.315 8.594L0 6.151V11.141ZM5.921 8.947L6.545 8.288L7.706 9.514V6H8.55V9.486L9.69 8.282L10.322 8.948L8.122 11.337L5.921 8.947Z" fill="#6B7394"/>
<path fill-rule="evenodd" clip-rule="evenodd" d="M11.0531 10.602L11.6231 11.205L13.4331 9.295L15.1151 11.205L15.7161 10.505L13.9461 8.637L15.8361 6.641L15.2301 6L13.3861 7.947L11.5651 6L10.9961 6.641L12.7401 8.637L11.0531 10.602Z" fill="#FFCB6B"/>
</svg>

<svg xmlns="http://www.w3.org/2000/svg" width="16" height="16" fill="none"><g fill-rule="evenodd" clip-rule="evenodd"><path fill="#6B7394" d="M0 11.141h.821V8.396l1.58 1.72 1.457-1.72v2.71h.915V6L2.315 8.594 0 6.151zM5.921 8.947l.624-.659 1.161 1.226V6h.844v3.486l1.14-1.204.632.666-2.2 2.389z"/><path fill="#FFCB6B" d="m11.053 10.602.57.603 1.81-1.91 1.682 1.91.601-.7-1.77-1.868 1.89-1.996L15.23 6l-1.844 1.947L11.565 6l-.569.641 1.744 1.996z"/></g></svg>
